X: 9457
T: Danza De Albarellos
R: polka
M: 2/4
K: Gmajor
"G""_(4)"DB BA|"G"GF/G/ "D"AA|Dc cB|"D""_1"AB/c/ "G""_2 3"d2|
"G""_4"DB BA|"G"GF/G/ "D"AA|DA AG|"D""_1"FE/F/ "G""_2 3"G2:|
"G""_4"Gd dd|"G"e/d/c/B/ "D"dc|A/B/c cB/c/|"_1"dc "_2"B"_3"A|
"G""_4"Gd dd|"G"e/d/c/B/ "D"dc|A/B/c cB|"G""_1"AB/A/ "_2 3"G2:|

